src/assets/images/icons/pragmatic.svg

<svg xmlns="http://www.w3.org/2000/svg" xmlns:xlink="http://www.w3.org/1999/xlink" version="1.1" width="304" height="304" style=""><rect id="backgroundrect" width="100%" height="100%" x="0" y="0" fill="none" stroke="none" class="" style=""/>
    
<g class="currentLayer" style=""><title>Layer 1</title><g id="svgg" class="">
        <path id="path0" d="M29.075205824375153,29.075205824375153 C13.08384262096882,45.06656902778148 0,58.27665512603521 0,58.43112695848942 C0,58.5848146699667 22.824977517306806,81.53603566455841 50.72243363434076,109.43349178159238 L101.44486726868152,160.15592541593313 L62.012207460105415,199.60740412795545 C34.200220529556276,227.43350523608922 22.456440658152104,239.306665068686 22.160827049851417,239.90102876919508 C21.321033483564854,241.5900253534913 9.138929986059665,287.7143735791445 9.129520534336567,289.2426253631711 C9.10913338893652,292.45046427977087 11.654390080034732,295.1509769243002 14.898298561573029,295.36268958806994 C16.283056206822394,295.4536476213932 62.84023921173811,283.23704280090334 64.59980668395758,282.32118949985505 C66.21509589642285,281.4813959335685 288.6984454051852,58.622452476859095 290.1906276242733,56.35006988573075 C297.8122835199833,44.74507942724228 296.9089761545658,30.10318842512369 287.9229497590065,19.603024423122406 C278.50095210027695,8.591613544166089 261.98501196330784,5.949909972906113 249.48690771210192,13.455515964031221 C246.39747106301783,15.310746195435524 244.8535368594527,16.811553745269777 202.74388803565503,58.88905360901356 L160.1551412949562,101.44408314770459 L109.43270766061545,50.72164951336384 C81.53603566455841,22.824977517306806 58.5848146699667,0 58.43112695848942,0 C58.27665512603521,0 45.06656902778148,13.08384262096882 29.075205824375153,29.075205824375153 M63.513799130916595,22.837523452937603 L68.5094338749051,27.836294680833817 L64.54178173166514,31.807083307981493 L60.573345467448235,35.77865605610609 L65.08204108476639,40.284215189516544 L69.59073670208454,44.789774322927 L73.56152532923221,40.8213380587101 L77.53309807735683,36.85368591547012 L82.3327025771141,41.65642689913511 L87.13309119784832,46.459952003777026 L80.07835476845503,53.51625667512417 L73.02361833906174,60.5725613464713 L77.52996159344912,65.08204108476639 L82.03630484783649,69.59152082306147 L89.09574600309134,62.533647909760475 L96.15518715834618,55.47577499645948 L101.00575952160358,60.32948384362459 L105.85554776388406,65.18240856981278 L101.88711149966716,69.15006071305275 L97.91945935642718,73.11849697726964 L102.42501848983764,77.6271925945878 L106.93136174422503,82.13667233288288 L110.90293449234963,78.16902018964291 L114.8737231194973,74.20058392542602 L119.67724822413922,79.00097254616023 L124.47998920780421,83.8005770459175 L117.42211629450321,90.86001820117235 L110.36424338120221,97.91945935642718 L114.8737231194973,102.42580261081457 L119.38320285779238,106.93214586520196 L126.44029165011645,99.87662531483173 L133.49738044244052,92.82188888543844 L138.34795280569793,97.67246124869584 L143.19930928993224,102.52381773293018 L139.23087302571534,106.49225399714709 L135.26165264052153,110.460690261364 L139.23008890473844,114.4322630094886 L143.1985251689553,118.4038357576132 L126.83078389662504,134.77157702994347 L110.46304262429476,151.13931830227375 L64.10188986361027,104.77816554158926 L17.741521223902705,58.41701278090477 L38.02986738085747,38.12788250297308 C49.18869300347566,26.96905688035488 58.36290843349695,17.83875222504139 58.4177969018817,17.83875222504139 C58.47268537026643,17.83875222504139 60.76623922777175,20.088395307838915 63.513799130916595,22.837523452937603 M165.59694087481498,164.02791479998828 L58.71184226822854,270.91301340657475 L46.116507015883926,258.319246396184 L33.52038764256239,245.72469526481626 L140.40627037012578,138.8388125372529 L247.29136897671225,31.953713930666446 L259.8867042290568,44.5474809410572 L272.48282360237835,57.14203207242488 L165.59694087481498,164.02791479998828 M199.62151830554006,158.0850619158745 L191.22750324755907,166.40223311811687 L195.73463062292336,170.92425879204274 L200.24175799828765,175.44706858694553 L204.21333074641225,171.47863232272863 L208.1856876155138,167.51019605851172 L213.0354758577943,172.36076842176914 L217.88604822105168,177.21055666404962 L210.83131179165838,184.26764545637369 L203.77579124128818,191.32473424869775 L208.28213449567556,195.83421398699284 L212.78847775006295,200.3436937252879 L219.84791890531778,193.28582081198692 L226.9073600605726,186.22794789868593 L231.70696456032994,191.03068888235092 L236.5073531810641,195.83421398699284 L232.53891691684723,199.80500261414053 L228.57126477360725,203.77657536226513 L233.0807445119023,208.28291861665247 L237.58944012922046,212.78847775006295 L241.5578763934374,208.82082560682298 L245.52552853667737,204.85238934260605 L250.37845326286552,209.70217758488653 L255.23216211003063,214.55274994814397 L248.17428919672966,221.6121911033988 L241.1164162834287,228.67163225865363 L245.62589602172375,233.17797551304102 L250.1353757600188,237.6843187674284 L257.19168043136597,230.6295823380351 L264.24798510271313,223.5748459086418 L269.051510207355,228.37523452937603 L273.85425119102,233.1748390291333 L269.88659904778,237.1464117772579 L265.91816278356316,241.1172004044056 L270.4237219169736,245.62589602172375 L274.929281050384,250.1345916390419 L278.90085379850865,246.16615537482502 L282.8724265466332,242.19850323158505 L284.7825452464223,244.10862193137407 L286.6926639462113,246.0187406311631 L266.4043177892566,266.3078709090948 C255.24627628761533,277.466696531713 246.03363892972467,286.5962170660496 245.9324873237014,286.5962170660496 C245.83133571767806,286.5962170660496 226.1569562856555,267.01279566735025 202.211469892323,243.07750284671783 C178.26598349899052,219.1422100260854 158.58846758306026,199.5587886273861 158.4826112511754,199.5587886273861 C158.37753904026746,199.5587886273861 156.3529386778474,201.49870392429827 153.98410920655726,203.86910163754226 L149.67771680128575,208.17941464769842 L150.74804193478823,209.30854885447027 C154.790969691813,213.5749510899186 245.7827202171087,304.43496929109097 246.0116835423708,304.43496929109097 C246.3927663371563,304.43496929109097 304.43496929109097,246.39041397422554 304.43496929109097,246.01011530041694 C304.43496929109097,245.67137503838538 208.5769639829993,149.76710659265518 208.2390078419447,149.76710659265518 C208.1159008485675,149.76710659265518 204.23842261767388,153.5097160155177 199.62151830554006,158.0850619158745 " stroke="none" fill="#3cdddd" fill-rule="evenodd"/>
    </g></g></svg>

<svg xmlns="http://www.w3.org/2000/svg" width="304" height="304">
    <path class="icon__primary-shape" fill="#67daff" d="M29.075 29.075C13.084 45.067 0 58.277 0 58.431c0 .154 22.825 23.105 50.722 51.002l50.723 50.723-39.433 39.451c-27.812 27.827-39.556 39.7-39.851 40.294-.84 1.689-13.022 47.813-13.031 49.342-.02 3.207 2.524 5.908 5.768 6.12 1.385.09 47.942-12.126 49.702-13.042 1.615-.84 224.098-223.699 225.59-225.97 7.622-11.606 6.719-26.248-2.267-36.748-9.422-11.011-25.938-13.653-38.436-6.147-3.09 1.855-4.633 3.356-46.743 45.433l-42.589 42.555-50.722-50.722C81.536 22.825 58.585 0 58.43 0c-.154 0-13.364 13.084-29.356 29.075m34.439-6.237 4.995 4.998-3.967 3.971-3.969 3.972 4.509 4.505 4.509 4.506 3.97-3.969 3.972-3.967 4.8 4.802 4.8 4.804-7.055 7.056-7.054 7.057 4.506 4.509 4.506 4.51 7.06-7.058 7.06-7.058 4.85 4.853 4.85 4.853-3.969 3.968-3.968 3.968 4.506 4.51 4.506 4.509 3.972-3.968 3.97-3.968 4.804 4.8 4.803 4.8-7.058 7.059-7.058 7.06 4.51 4.506 4.51 4.506 7.056-7.055 7.057-7.055 4.851 4.85 4.851 4.852-3.968 3.968-3.97 3.969 3.97 3.971 3.968 3.972-16.368 16.368-16.368 16.367-46.361-46.36-46.36-46.362 20.288-20.29C49.189 26.97 58.363 17.84 58.418 17.84c.055 0 2.348 2.25 5.096 4.999m102.083 141.19L58.712 270.913l-12.595-12.594-12.597-12.594 106.886-106.886L247.291 31.954l12.596 12.593 12.596 12.595-106.886 106.886m34.025-5.943-8.394 8.317 4.507 4.522 4.507 4.523 3.971-3.968 3.973-3.969 4.85 4.85 4.85 4.85-7.055 7.058-7.055 7.057 4.506 4.51 4.506 4.509 7.06-7.058 7.06-7.058 4.799 4.803 4.8 4.803-3.968 3.971-3.968 3.972 4.51 4.506 4.508 4.505 3.969-3.967 3.968-3.969 4.852 4.85 4.854 4.85-7.058 7.06-7.058 7.06 4.51 4.506 4.51 4.506 7.056-7.054 7.056-7.055 4.804 4.8 4.802 4.8-3.967 3.971-3.969 3.971 4.506 4.509 4.505 4.509 3.972-3.969 3.971-3.967 1.91 1.91 1.91 1.91-20.288 20.289c-11.158 11.159-20.37 20.288-20.472 20.288-.1 0-19.775-19.583-43.72-43.518-23.946-23.936-43.624-43.52-43.73-43.52-.104 0-2.13 1.94-4.498 4.311l-4.306 4.31 1.07 1.13c4.043 4.266 95.035 95.126 95.264 95.126.38 0 58.423-58.045 58.423-58.425 0-.339-95.858-96.243-96.196-96.243-.123 0-4 3.743-8.617 8.318"/>
</svg>
